cc-by-sa/knowledge/modules/using_type/lessons/from_type_to_logotype/images/21_A.svg

<svg xmlns="http://www.w3.org/2000/svg" width="1920" height="1080" fill="none"><g fill="#1A73E8" clip-path="url(#a)"><path d="m1131.21 859.974-41.56-125.837H704.635L663 859.999h480.49v-.025h-12.28ZM921.26 224.178 920.209 221h-45.822L721.078 685.174h125.787l111.739-338.312H921.26V224.178ZM1199.27 685.174h.04L1046 221h-45.83l-1.045 3.178v122.684H961.78l16.162 48.938h125.748l95.58 289.374ZM921.26 221h-1.05l1.05 3.178V221ZM1000.17 221h-1.046v3.178l1.046-3.178ZM977.942 395.801h-.039l52.967 160.358h.04l-52.968-160.358Z"/><path d="M1143.49 859.974H1257l-57.73-174.8h-125.75l-24.41-73.901s-.01.013-.03.026l40.57 122.838h53.84v125.837Z"/><path d="M1143.49 859.974V734.137h-53.83l41.55 125.837h12.28ZM1060.87 587.028c0 9.829-4.6 18.594-11.76 24.245l24.41 73.9h125.75l-95.58-289.386H977.942l52.968 160.359c16.62.487 29.96 14.121 29.96 30.87v.012ZM958.604 346.863h3.177l-1.588-4.818-1.589 4.818ZM921.26 224.178v122.684h37.344l1.588-4.818-38.932-117.866Z"/><path d="m999.125 224.178-38.933 117.866 1.588 4.818h37.345V224.178ZM960.192 342.044l38.932-117.866V221H921.26v3.178l38.932 117.866ZM999.124 587.029c0-12.596 7.526-23.412 18.326-28.23-10.39-20.657-31.76-34.842-56.451-34.842-34.886 0-63.163 28.294-63.163 63.2 0 34.907 28.277 63.201 63.163 63.201 24.781 0 46.221-14.288 56.571-35.06-10.86-4.793-18.446-15.647-18.446-28.282v.013Z"/></g><defs><clipPath id="a"><path fill="#fff" d="M663 221h594v639H663z"/></clipPath></defs></svg>

<svg width="1920" height="1080" viewBox="0 0 1920 1080" fill="none" xmlns="http://www.w3.org/2000/svg">
<g clip-path="url(#clip0_3303_15890)">
<path d="M1131.21 859.974L1089.65 734.137H704.635L663 859.999H1143.49V859.974H1131.21Z" fill="#1A73E8"/>
<path d="M921.26 224.178L920.209 221H874.387L721.078 685.174H846.865L958.604 346.862H921.26V224.178Z" fill="#1A73E8"/>
<path d="M1199.27 685.174H1199.31L1046 221H1000.17L999.125 224.178V346.862H961.78L977.942 395.8H1103.69L1199.27 685.174Z" fill="#1A73E8"/>
<path d="M921.26 221H920.21L921.26 224.178V221Z" fill="#1A73E8"/>
<path d="M1000.17 221H999.124V224.178L1000.17 221Z" fill="#1A73E8"/>
<path d="M977.942 395.801H977.903L1030.87 556.159C1030.87 556.159 1030.9 556.159 1030.91 556.159L977.942 395.801V395.801Z" fill="#1A73E8"/>
<path d="M1143.49 859.974H1257L1199.27 685.174H1073.52L1049.11 611.273C1049.11 611.273 1049.1 611.286 1049.08 611.299L1089.65 734.137H1143.49V859.974V859.974Z" fill="#1A73E8"/>
<path d="M1143.49 859.974V734.137H1089.66L1131.21 859.974H1143.49Z" fill="#1A73E8"/>
<path d="M1060.87 587.028C1060.87 596.857 1056.27 605.622 1049.11 611.273L1073.52 685.173H1199.27L1103.69 395.787H977.942L1030.91 556.146C1047.53 556.633 1060.87 570.267 1060.87 587.016V587.028Z" fill="#1A73E8"/>
<path d="M958.604 346.863H961.781L960.193 342.045L958.604 346.863Z" fill="#1A73E8"/>
<path d="M921.26 224.178V346.862H958.604L960.192 342.044L921.26 224.178Z" fill="#1A73E8"/>
<path d="M999.125 224.178L960.192 342.044L961.78 346.862H999.125V224.178Z" fill="#1A73E8"/>
<path d="M960.192 342.044L999.124 224.178V221H921.26V224.178L960.192 342.044Z" fill="#1A73E8"/>
<path d="M999.124 587.029C999.124 574.433 1006.65 563.617 1017.45 558.799C1007.06 538.142 985.69 523.957 960.999 523.957C926.113 523.957 897.836 552.251 897.836 587.157C897.836 622.064 926.113 650.358 960.999 650.358C985.78 650.358 1007.22 636.07 1017.57 615.298C1006.71 610.505 999.124 599.651 999.124 587.016V587.029Z" fill="#1A73E8"/>
</g>
<defs>
<clipPath id="clip0_3303_15890">
<rect width="594" height="639" fill="white" transform="translate(663 221)"/>
</clipPath>
</defs>
</svg>
